!!!COM: Joplin, Scott
!!!CDT: 1868/11/24-1917/04/01
!!!OTL: The Rose-bud March
!!!ODE: Tom Turpin
!!!AGN: March
!!!ODT: 1905
!!!OMD: Tempo di Marcia.
**kern	**kern	**dynam
*staff2	*staff1	*staff1/2
*Ipiano	*Ipiano	*Ipiano
*>[I,A,A1,A,A2,B,B1,B,B2,C1,C2,D,E,E1,E2]	*>[I,A,A1,A,A2,B,B1,B,B2,C1,C2,D,E,E1,E2]	*>[I,A,A1,A,A2,B,B1,B,B2,C1,C2,D,E,E1,E2]
*>norep[I,A,A2,B,B2,C,C2,D,E,E2]	*>norep[I,A,A2,B,B2,C,C2,D,E,E2]	*>norep[I,A,A2,B,B2,C,C2,D,E,E2]
*>I	*>I	*>I
*clefF4	*clefG2	*clefG2
*k[f#]	*k[f#]	*k[f#]
*M6/8	*M6/8	*M6/8
*MM160	*MM160	*MM160
=1-	=1-	=1
(8dL	(8ddL	.
8d-	8dd-	.
8cJ	8ccJ	.
8BL	8bL	.
8B-	8b-	.
8AJ)	8aJ)	.
=2	=2	=2
(8A-L	(8a-L	.
8G	8g	.
8F#J	8f#J	.
8FnL	8fnL	.
8E	8e	.
8E-J)	8e-J)	.
=3	=3	=3
(8DL	(8dL	.
8D#	8d#	.
8EJ	8eJ	.
8F#L	8f#L	.
8E	8e	.
8E-J)	8e-J)	.
=4	=4	=4
8D	8d	.
8r	8r	.
8r	8r	.
8D^^ DD	8dd^^ a f# d	.
8r	8r	.
8r	8d	.
!!LO:LB:g=original
=5!|:	=5!|:	=5!|:
*>A	*>A	*>A
8AAL	8f#L	mf
8r	8e	.
8cJ F# D	8dJ	.
8DDL<	8aL>	.
8r	8b	.
8cJ F# D	8ccJ	.
=6	=6	=6
8GGL<	8bL	.
8r	8r	.
8BJ G D	8eeJ b g	.
8DDL<	4ee b g	.
8r	.	.
8BJ G D	8ee	.
=7	=7	=7
8FF#L	8ddL	.
8r	8ee	.
8cJ A D	8ccJ	.
8DDL<	8bL	.
8r	8cc	.
8cJ F# D	8aJ	.
=8	=8	=8
8GGL<	8gL<	.
8r	8r	.
8BJ G D	8eeJ b g	.
4B G D	4ee b g	.
8B G D	8g	.
!!LO:LB:g=original
=9	=9	=9
8AAL	8f#L	.
8r	8e	.
8cJ F# D	8dJ	.
8DDL<	8aL>	.
8r	8b	.
8cJ F# D	8ccJ	.
=10	=10	=10
8GGL<	8bL	.
8r	8r	.
8BJ G D	8eeJ b g	.
4B G D	4ee b g	.
8G# GG#	8ee# dd b	.
=11	=11	=11
*	*^	*
4A AA	(8ff#L	4.dd a	.
.	8ee	.	.
8d A F#	8ddJ)	.	.
4AA	(8cc#L	4g	.
.	8dd	.	.
8c# A	8eeJ)	8g	.
*	*v	*v	*
=12	=12	=12
4d A D	[4.dd [f#	.
8A AA	.	.
8D DD	4dd] f#]	.
8r	.	.
8r	8d	.
!!LO:LB:g=original
=13	=13	=13
8AAL	8f#L	.
8r	8e	.
8cJ F# D	8dJ	.
8DDL	8aL>	.
8r	8b	.
8cJ F# D	8ccJ	.
=14	=14	=14
8GGL	8bL	.
8r	8r	.
8BJ G D	8eeJ b g	.
8DDL	4ee b g	.
8r	.	.
8BJ G D	8ee	.
=15	=15	=15
8FF#L	8ddL	.
8r	8ee	.
8cJ A D	8ccJ	.
8DDL	8bL	.
8r	8cc	.
8cJ F# D	8aJ	.
=16	=16	=16
8GGL	8gL<	.
8r	8r	.
8BJ G D	8eeJ b g	.
4B G D	4ee b g	.
8r	(16ff#LL	.
.	16ggJJ)	.
=17	=17	=17
4C	4.aa ee cc	.
8c A E	.	.
4c A E	(8ggL	.
.	8ee	.
8c A E	8ccJ)	.
!!LO:LB:g=original
=18	=18	=18
8DL	8bL	.
8r	8r	.
8BJ G	8eeJ	.
8BBL	8ddL	.
8r	8b	.
8BJ G D	8gJ	.
=19	=19	=19
8AAL	8f#L	.
8r	8dd	.
8cJ F# D	8aJ	.
8DDL<	8ccL>	.
8r	8b	.
8cJ F# D	8aJ	.
=20	=20	=20
*>A1	*>A1	*>A1
4B G	4g	.
8r	8d	.
4.r	8dL	.
.	8d	.
.	8dJ	.
=21:|!	=21:|!	=21:|!
*>A2	*>A2	*>A2
4B G	4g	.
8r	8dd d	.
4.r	8ddL d	.
.	8dd d	.
.	8ddJ d	.
!!LO:LB:g=original
=22!|:	=22!|:	=22!|:
*>B	*>B	*>B
4C	4.ee cc e	f
8c A E	.	.
4c A E	4dd# d#	.
8c A E	8ee cc e	.
=23	=23	=23
4AA	4.ccc ff# cc	.
8c F# D	.	.
4DD	4bb b	.
8c F# D	8aa ff# a	.
=24	=24	=24
4GG	4bb gg b	.
8B G D	8ddd bb dd	.
4B G D	[4.ddd [bb [dd	.
8B G D	.	.
=25	=25	=25
4GG	4.ddd] bb] dd]	.
8B G D	.	.
4.BB	4dd d	.
.	8dd# d#	.
=26	=26	=26
4C	4.ee cc e	.
8c A E	.	.
4c A E	4dd# d#	.
8c A E	8ee cc e	.
=27	=27	=27
4AA	4.ccc ff# cc	.
8c F# D	.	.
4DD	4ddd ff# dd	.
8A F# D	8ccc ff# cc	.
!!LO:LB:g=original
=28	=28	=28
(>8GGL	[2.bb [gg [b	.
8D	.	.
8GJ	.	.
8BL	.	.
8G	.	.
8DJ)	.	.
=29	=29	=29
4.GG	4.bb] gg] b]	.
4G GG	4dd d	.
8Fn FFn	8dd# d#	.
=30	=30	=30
4E EE	4.ee g# e	.
8d B E	.	.
4GG#	4ffn fn	.
8d B E	8ee g# e	.
=31	=31	=31
4BB	4.gg# ee g#	.
8d B E	.	.
4G# GG#	4.bb ee b	.
8d B E	.	.
=32	=32	=32
4A AA	4ccc ee cc	.
8B BB	8bb ee b	.
4.c C	[4.aa [ee [a	.
=33	=33	=33
4C#	4aa] ee] a]	.
8A# G E	8ggg gg	.
4A# G E	4fff# ff#	.
8A# G E	8eee ee	.
!!LO:LB:g=original
=34	=34	=34
4D	4ddd dd	.
8B G	8ccc# cc#	.
4BB	4ddd dd	.
8B G D	8eee ee	.
=35	=35	=35
4AA	4.bb gg cc#	.
8c# A G E	.	.
4DD	4.aa ff# ccn	.
8cn A F# D	.	.
=36	=36	=36
*>B1	*>B1	*>B1
4GG	[2.gg [b	.
8D/	.	.
8EL	.	.
8D	.	.
8BBJ	.	.
=37	=37	=37
4GG	4gg] b]	.
8r	8dd d	.
4.r	8ddL d	.
.	8dd d	.
.	8ddJ d	.
=38:|!	=38:|!	=38:|!
*>B2	*>B2	*>B2
4GG	[2.gg [b	.
8D/	.	.
8EL	.	.
8D	.	.
8BBJ	.	.
=39	=39	=39
4GG	4gg] b]	.
8Fn	8r	.
4E	4.r	.
8D	.	.
!!LO:LB:g=original
=40	=40	=40
*>C	*>C	*>C
*k[]	*k[]	*k[]
4C	4.ee g	p
8c G E	.	.
4C	4.g e	.
8c G E	.	.
=41	=41	=41
*	*^	*
4C	4.f# d#	4.ryy	.
8c A F#	.	.	.
4C	(4b	4.d#	.
8c A F#	8a)	.	.
*	*v	*v	*
=42	=42	=42
4C	4.g e	.
8c G E	.	.
4GG	[4.cc [e	.
8c G E	.	.
=43	=43	=43
4C	4.cc] e]	.
8c G E	.	.
4GG	4.cc b-	.
8c G E	.	.
=44	=44	=44
4FF	4.cc/ a/	.
8c A F	.	.
4C	4.a f	.
8c A F	.	.
=45	=45	=45
4AA	4.ff a	.
8c A F	.	.
4FF	4.a f	.
8c A F	.	.
!!LO:LB:g=original
=46	=46	=46
*	*^	*
4C	[2.g	4.e	.
8c G E	.	.	.
4C#	.	4.e	.
8A# G E	.	.	.
=47	=47	=47	=47
4B G D	4g]	4f	.
8r	8r	8r	.
8G GG	4.ryy	8gg g	.
8r	.	8r	.
8r	.	8r	.
*	*v	*v	*
=48	=48	=48
4C	4.ee g	.
8c G E	.	.
4C	4.g e	.
8c G E	.	.
=49	=49	=49
*	*^	*
4C	4.f# d#	4.ryy	.
8c A F#	.	.	.
4C	(4b	4.d#	.
8c A F#	8a)	.	.
*	*v	*v	*
=50	=50	=50
4C	4.g e	.
8c G E	.	.
4GG	[4.cc [e	.
8c G E	.	.
=51	=51	=51
4E	4.cc] e]	.
8c G	.	.
4E-	4.cc	.
8c G	.	.
!!LO:LB:g=original
=52	=52	=52
4D	4.b/	.
8B G	.	.
4BB	4.g	.
8B G D	.	.
=53	=53	=53
4D	4.a	.
8c A F#	.	.
4D	4.d	.
8c A F#	.	.
=54	=54	=54
8GGL	[2.g [B	.
8BB	.	.
8DJ	.	.
8GL	.	.
8D	.	.
8BBJ	.	.
=55	=55	=55
4GG	4g] B]	.
8r	8r	.
4.G GG	4.gg g	.
=56	=56	=56
4C	4.ee g	.
8c G E	.	.
4C	4.g e	.
8c G E	.	.
=57	=57	=57
*	*^	*
4C	4.f# d#	4.ryy	.
8c A F#	.	.	.
4C	(4b	4.d#	.
8c A F#	8a)	.	.
*	*v	*v	*
!!LO:LB:g=original
=58	=58	=58
4C	4.g e	.
8c G E	.	.
4GG	[4.cc [e	.
8c G E	.	.
=59	=59	=59
4C	4.cc] e]	.
8c G E	.	.
4c G E	4.g e	.
8c G E	.	.
=60	=60	=60
4FF	4.a f	.
8c A F	.	.
4c A F	4.cc a	.
8c A F	.	.
=61	=61	=61
4.F FF	4.dd b a	.
4.F FF	4.dd# b a	.
=62	=62	=62
8EL EE	[2.ee [b [g#	.
8GG#	.	.
8BBJ	.	.
8EL	.	.
8BB	.	.
8GG#J	.	.
=63	=63	=63
4EE	4.ee] b] g#X]	.
8r	.	.
4.r	4.ee	.
!!LO:LB:g=original
=64	=64	=64
4E	4.aa cc# a	.
8c# A G	.	.
4AA	4.gg cc# a	.
8c# A G	.	.
=65	=65	=65
4C#	4.ff cc# a	<
8c# A G	.	.
4AA	4.ee cc# g	.
8c# A G	.	[
=66	=66	=66
4D	4.dd a f	<
8d A F	.	.
4A AA	4.ff dd a	.
8d A F	.	[
=67	=67	=67
2.A- AA-	2.ccc ff# dd# cc	f >]
=68	=68	=68
4G GG	4.gg ee cc	mf
8c G E	.	.
4c G E	4.ee cc g	.
8c G E	.	.
=69	=69	=69
4GG	[4.dd [b [f	.
8B G F	.	.
4D	4dd] b] f]	.
8B G F	8g f	.
!!LO:LB:g=original
=70	=70	=70
*>C1	*>C1	*>C1
8CL	[2.cc [e	.
8E	.	.
8GJ	.	.
8AL	.	.
8G	.	.
8EJ	.	.
=71	=71	=71
4C	4cc] e]	.
8r	8r	.
4.G GG	4.gg b g	.
=72:|!	=72:|!	=72:|!
*>C2	*>C2	*>C2
8CL	[2.cc [e	.
8E	.	.
8GJ	.	.
8AL	.	.
8G	.	.
8EJ	.	.
=73	=73	=73
*>D	*>D	*>D
4C	4cc] e]	.
8r	8r	.
8C CC	8ccc ee cc	.
8r	8r	.
8r	8r	.
=74	=74	=74
4.c G E C	4e	.
.	8d#	.
4.A# G E C#	(8eL	.
.	8g	.
.	8eJ)	.
=75	=75	=75
4.B G D	4d	.
.	8d	.
4.B G D	(8bL	.
.	8g	.
.	8eJ)	.
=76	=76	=76
4.c A F# D	4d	.
.	8a	.
4.c A F# D	(8dL	.
.	8e	.
.	8f#J)	.
!!LO:LB:g=original
=77	=77	=77
4GG	4g	.
8B G D	8r	.
4DD	8r	.
.	8r	.
8B G D	8d	.
=78!|:	=78!|:	=78!|:
*>E	*>E	*>E
*k[f#]	*k[f#]	*k[f#]
8AAL	8f#L	mf
8r	8e	.
8cJ F# D	8dJ	.
8DDL<	8aL>	.
8r	8b	.
8cJ F# D	8ccJ	.
=79	=79	=79
8GGL<	8bL	.
8r	8r	.
8BJ G D	8eeJ b g	.
8DDL<	4ee b g	.
8r	.	.
8BJ G D	8ee	.
=80	=80	=80
8FF#L	8ddL	.
8r	8ee	.
8cJ A D	8ccJ	.
8DDL<	8bL	.
8r	8cc	.
8cJ F# D	8aJ	.
=81	=81	=81
8GGL<	8gL<	.
8r	8r	.
8BJ G D	8eeJ b g	.
4B G D	4ee b g	.
8B G D	8g	.
=82	=82	=82
8AAL	8f#L	.
8r	8e	.
8cJ F# D	8dJ	.
8DDL<	8aL>	.
8r	8b	.
8cJ F# D	8ccJ	.
!!LO:LB:g=original
=83	=83	=83
8GGL<	8bL	.
8r	8r	.
8BJ G D	8eeJ b g	.
4B G D	4ee b g	.
8G# GG#	8ee# dd b	.
=84	=84	=84
*	*^	*
4A AA	(8ff#L	4.dd a	.
.	8ee	.	.
8d A F#	8ddJ)	.	.
4AA	(8cc#L	4g	.
.	8dd	.	.
8c# A	8eeJ)	8g	.
*	*v	*v	*
=85	=85	=85
4d A D	[4.dd [f#	.
8A AA	.	.
8D DD	4dd] f#]	.
8r	.	.
8r	8d	.
=86	=86	=86
8AAL	8f#L	.
8r	8e	.
8cJ F# D	8dJ	.
8DDL<	8aL	.
8r	8b	.
8cJ F# D	8ccJ	.
=87	=87	=87
8GGL<	8bL	.
8r	8r	.
8BJ G D	8eeJ b g	.
8DDL<	4ee b g	.
8r	.	.
8BJ G D	8ee	.
=88	=88	=88
8FF#L	8ddL	.
8r	8ee	.
8cJ A D	8ccJ	.
8DDL<	8bL	.
8r	8cc	.
8cJ F# D	8aJ	.
!!LO:LB:g=original
=89	=89	=89
8GGL<	8gL<	.
8r	8r	.
8BJ G D	8eeJ b g	.
4B G D	4ee b g	.
8r	(16ff#LL	.
.	16ggJJ)	.
=90	=90	=90
4C	4.aa ee cc	.
8c A E	.	.
4c A E	8ggL	.
.	8ee	.
8c A E	8ccJ	.
=91	=91	=91
8DL	8bL	.
8r	8r	.
8BJ G	8eeJ	.
8BBL	8ddL	.
8r	8b	.
8BJ G D	8gJ	.
=92	=92	=92
8AAL	8f#L	.
8r	8dd	.
8cJ F# D	8aJ	.
8DDL	8ccL	.
8r	8b	.
8cJ F# D	8aJ	.
=93	=93	=93
*>E1	*>E1	*>E1
4B G	4g	.
8r	8d	.
4.r	8dL	.
.	8d	.
.	8dJ	.
=94:|!	=94:|!	=94:|!
*>E2	*>E2	*>E2
4B G	4g	.
8r	8r	.
8G^^ GG	8gg^^ b g	.
8r	8r	.
8r	8r	.
!LO:TX:b:i:t=Fine.	!	!
==	==;	==
*-	*-	*-
!!!RDF**kern: > = above
!!!RDF**kern: < = below
!!!URL-vhv: https://verovio.humdrum.org/?file=joplin/rosebud.krn
!!!URL-pdf-original: https://github.com/craigsapp/joplin/blob/master/reference-edition/rosebud.pdf
!!!PDT: 1905
!!!PPR: John Stark & Son
!!!ENC: Craig Stuart Sapp
!!!END: 2005/03/29
!!!EED: Craig Stuart Sapp
!!!EEV: 2021/06/30
